X: 14844
T: Garrett Barry's
R: hornpipe
M: 4/4
K: Ddorian
|:(3A,B,C|DEFA GEC2|AGAB cdec|dcAc d3e|(3fgf ed cAGE|
F3A G3c|AGAB cdec|dcAG EAGE|D2DC D2:|
|:(3ABc|dcAc d3e|fagf egfe|dcAB c3d|eg (3fed ecA2|
dcAc d3e|fagf egfe|dcAG EAGE|D2DC D2:|

